;FLAVOR:Marlin
;TIME:27803
;Filament used: 26.2376m
;Layer height: 0.2
;MINX:33.499
;MINY:28.72
;MINZ:0.2
;MAXX:146.499
;MAXY:151.499
;MAXZ:38.4
;Generated with Cura_SteamEngine 4.12.1
M140 S60
M105
M190 S60
M104 S200
M105
M109 S200
M82 ;absolute extrusion mode
G28 ; home all axes
 M117 Purge extruder
 G92 E0 ; reset extruder
 G1 Z1.0 F3000 ; move z up little to prevent scratching of surface
 G1 X2 Y20 Z0.3 F5000.0 ; move to start-line position
 G1 X2 Y175.0 Z0.3 F1500.0 E15 ; draw 1st line
 G1 X2 Y175.0 Z0.4 F5000.0 ; move to side a little
 G1 X2 Y20 Z0.4 F1500.0 E30 ; draw 2nd line
 G92 E0 ; reset extruder
 G1 Z1.0 F3000 ; move z up little to prevent scratching of surface
G92 E0
G92 E0
G1 F2400 E-1
;LAYER_COUNT:190
;LAYER:0
M107
G1 F240 Z0.6
;MESH:bottom-Body.stl
G0 F6000 X145.4 Y150.4 Z0.6
;TYPE:WALL-INNER
G1 F240 Z0.2
G1 F2400 E0
G1 F1200 X34.6 Y150.4 E4.05375
G1 X34.6 Y29.6 E8.47335
G1 X145.4 Y29.6 E12.5271
G1 X145.4 Y150.4 E16.9467
G0 F6000 X145.84 Y150.84
G1 F1200 X34.16 Y150.84 E21.03265
G1 X34.16 Y29.16 E25.48445
G1 X145.84 Y29.16 E29.57039
G1 X145.84 Y150.84 E34.02219
G0 F6000 X146.28 Y151.28
;TYPE:WALL-OUTER
G1 F1200 X33.72 Y151.28 E38.14033
G1 X33.72 Y28.72 E42.62433
G1 X146.28 Y28.72 E46.74246
G1 X146.28 Y151.28 E51.22646
G1 F2400 E50.22646
G1 F240 Z0.6
G0 F6000 X144.97 Y149.97 Z0.6
;TYPE:SKIN
G1 F240 Z0.2
G1 F2400 E51.22646
G1 F1200 X35.03 Y149.97 E55.24874
G1 X35.03 Y30.03 E59.63689
G1 X144.97 Y30.03 E63.65917
G1 X144.97 Y149.97 E68.04731
G1 F2400 E67.04731
G1 F240 Z0.6
G0 F6000 X35.298 Y149.792 Z0.6
G1 F240 Z0.2
G1 F2400 E68.04731
G1 F1200 X35.205 Y149.7 E68.0521
G0 F6000 X35.205 Y149.077
G1 F1200 X35.92 Y149.792 E68.08909
G0 F6000 X36.542 Y149.792
G1 F1200 X35.205 Y148.455 E68.15827
G0 F6000 X35.205 Y147.833
G1 F1200 X37.164 Y149.792 E68.25963
G0 F6000 X37.787 Y149.792
G1 F1200 X35.205 Y147.211 E68.3932
G0 F6000 X35.205 Y146.588
G1 F1200 X38.409 Y149.792 E68.55897
G0 F6000 X39.031 Y149.792
G1 F1200 X35.205 Y145.966 E68.75693
G0 F6000 X35.205 Y145.344
G1 F1200 X39.653 Y149.792 E68.98707
G0 F6000 X40.276 Y149.792
G1 F1200 X35.205 Y144.722 E69.24943
G0 F6000 X35.205 Y144.099
G1 F1200 X40.898 Y149.792 E69.54398
G0 F6000 X41.52 Y149.792
G1 F1200 X35.205 Y143.477 E69.87073
G0 F6000 X35.205 Y142.855
G1 F1200 X42.142 Y149.792 E70.22965
G0 F6000 X42.765 Y149.792
G1 F1200 X35.205 Y142.233 E70.62078
G0 F6000 X35.205 Y141.61
G1 F1200 X43.387 Y149.792 E71.04413
G0 F6000 X44.009 Y149.792
G1 F1200 X35.205 Y140.988 E71.49965
G0 F6000 X35.205 Y140.366
G1 F1200 X44.631 Y149.792 E71.98736
G0 F6000 X45.254 Y149.792
G1 F1200 X35.205 Y139.744 E72.50727
G0 F6000 X35.205 Y139.121
G1 F1200 X45.876 Y149.792 E73.0594
G0 F6000 X46.498 Y149.792
G1 F1200 X35.205 Y138.499 E73.64371
G0 F6000 X35.205 Y137.877
G1 F1200 X47.12 Y149.792 E74.26019
G0 F6000 X47.743 Y149.792
G1 F1200 X35.205 Y137.255 E74.90889
G0 F6000 X35.205 Y136.632
G1 F1200 X48.365 Y149.792 E75.5898
G0 F6000 X48.987 Y149.792
G1 F1200 X35.205 Y136.01 E76.30289
G0 F6000 X35.205 Y135.388
G1 F1200 X49.609 Y149.792 E77.04816
G0 F6000 X50.232 Y149.792
G1 F1200 X35.205 Y134.766 E77.82564
G0 F6000 X35.205 Y134.143
G1 F1200 X50.854 Y149.792 E78.63533
G0 F6000 X51.476 Y149.792
G1 F1200 X35.205 Y133.521 E79.4772
G0 F6000 X35.205 Y132.899
G1 F1200 X52.098 Y149.792 E80.35126
G0 F6000 X52.721 Y149.792
G1 F1200 X35.205 Y132.277 E81.25752
G0 F6000 X35.205 Y131.654
G1 F1200 X53.343 Y149.792 E82.19599
G0 F6000 X53.965 Y149.792
G1 F1200 X35.205 Y131.032 E83.16665
G0 F6000 X35.205 Y130.41
G1 F1200 X54.587 Y149.792 E84.16948
G0 F6000 X55.21 Y149.792
G1 F1200 X35.205 Y129.788 E85.20453
G0 F6000 X35.205 Y129.165
G1 F1200 X55.832 Y149.792 E86.27178
G0 F6000 X56.454 Y149.792
G1 F1200 X35.205 Y128.543 E87.37122
G0 F6000 X35.205 Y127.921
G1 F1200 X57.076 Y149.792 E88.50284
G0 F6000 X57.699 Y149.792
G1 F1200 X35.205 Y127.299 E89.66667
G0 F6000 X35.205 Y126.676
G1 F1200 X58.321 Y149.792 E90.8627
G0 F6000 X58.943 Y149.792
G1 F1200 X35.205 Y126.054 E92.09092
G0 F6000 X35.205 Y125.432
G1 F1200 X59.565 Y149.792 E93.35132
G0 F6000 X60.188 Y149.792
G1 F1200 X35.205 Y124.81 E94.64393
G0 F6000 X35.205 Y124.187
G1 F1200 X60.81 Y149.792 E95.96875
G0 F6000 X61.432 Y149.792
G1 F1200 X35.205 Y123.565 E97.32575
G0 F6000 X35.205 Y122.943
G1 F1200 X62.054 Y149.792 E98.71494
G0 F6000 X62.677 Y149.792
G1 F1200 X35.205 Y122.32 E100.13636
G0 F6000 X35.205 Y121.698
G1 F1200 X63.299 Y149.792 E101.58996
G0 F6000 X63.921 Y149.792
G1 F1200 X35.205 Y121.076 E103.07574
G0 F6000 X35.205 Y120.454
G1 F1200 X64.543 Y149.792 E104.59371
G0 F6000 X65.166 Y149.792
G1 F1200 X35.205 Y119.831 E106.14391
G0 F6000 X35.205 Y119.209
G1 F1200 X65.788 Y149.792 E107.72629
G0 F6000 X66.41 Y149.792
G1 F1200 X35.205 Y118.587 E109.34086
G0 F6000 X35.205 Y117.965
G1 F1200 X67.033 Y149.792 E110.98763
G0 F6000 X67.655 Y149.792
G1 F1200 X35.205 Y117.342 E112.66662
G0 F6000 X35.205 Y116.72
G1 F1200 X68.277 Y149.792 E114.37778
G0 F6000 X68.899 Y149.792
G1 F1200 X35.205 Y116.098 E116.12113
G0 F6000 X35.205 Y115.476
G1 F1200 X69.522 Y149.792 E117.89669
G0 F6000 X70.144 Y149.792
G1 F1200 X35.205 Y114.853 E119.70445
G0 F6000 X35.205 Y114.231
G1 F1200 X70.766 Y149.792 E121.5444
G0 F6000 X71.388 Y149.792
G1 F1200 X35.205 Y113.609 E123.41653
G0 F6000 X35.205 Y112.987
G1 F1200 X72.011 Y149.792 E125.32087
G0 F6000 X72.633 Y149.792
G1 F1200 X35.205 Y112.364 E127.25742
G0 F6000 X35.205 Y111.742
G1 F1200 X73.255 Y149.792 E129.22615
G0 F6000 X73.877 Y149.792
G1 F1200 X35.205 Y111.12 E131.22707
G0 F6000 X35.205 Y110.498
G1 F1200 X74.5 Y149.792 E133.26019
G0 F6000 X75.122 Y149.792
G1 F1200 X35.205 Y109.875 E135.32552
G0 F6000 X35.205 Y109.253
G1 F1200 X75.744 Y149.792 E137.42303
G0 F6000 X76.366 Y149.792
G1 F1200 X35.205 Y108.631 E139.55273
G0 F6000 X35.205 Y108.009
G1 F1200 X76.989 Y149.792 E141.71463
G0 F6000 X77.611 Y149.792
G1 F1200 X35.205 Y107.386 E143.90874
G0 F6000 X35.205 Y106.764
G1 F1200 X78.233 Y149.792 E146.13504
G0 F6000 X78.855 Y149.792
G1 F1200 X35.205 Y106.142 E148.39352
G0 F6000 X35.205 Y105.52
G1 F1200 X79.478 Y149.792 E150.68421
G0 F6000 X80.1 Y149.792
G1 F1200 X35.205 Y104.897 E153.0071
G0 F6000 X35.205 Y104.275
G1 F1200 X80.722 Y149.792 E155.36218
G0 F6000 X81.344 Y149.792
G1 F1200 X35.205 Y103.653 E157.74944
G0 F6000 X35.205 Y103.031
G1 F1200 X81.967 Y149.792 E160.16891
G0 F6000 X82.589 Y149.792
G1 F1200 X35.205 Y102.408 E162.62059
G0 F6000 X35.205 Y101.786
G1 F1200 X83.211 Y149.792 E165.10445
G0 F6000 X83.833 Y149.792
G1 F1200 X35.205 Y101.164 E167.62049
G0 F6000 X35.205 Y100.542
G1 F1200 X84.456 Y149.792 E170.16874
G0 F6000 X85.078 Y149.792
G1 F1200 X35.205 Y99.919 E172.7492
G0 F6000 X35.205 Y99.297
G1 F1200 X85.7 Y149.792 E175.36185
G0 F6000 X86.322 Y149.792
G1 F1200 X35.205 Y98.675 E178.00667
G0 F6000 X35.205 Y98.053
G1 F1200 X86.945 Y149.792 E180.68371
G0 F6000 X87.567 Y149.792
G1 F1200 X35.205 Y97.43 E183.39295
G0 F6000 X35.205 Y96.808
G1 F1200 X88.189 Y149.792 E186.13437
G0 F6000 X88.811 Y149.792
G1 F1200 X35.205 Y96.186 E188.90798
G0 F6000 X35.205 Y95.564
G1 F1200 X89.434 Y149.792 E191.7138
G0 F6000 X90.056 Y149.792
G1 F1200 X35.205 Y94.941 E194.55182
G0 F6000 X35.205 Y94.319
G1 F1200 X90.678 Y149.792 E197.42203
G0 F6000 X91.3 Y149.792
G1 F1200 X35.205 Y93.697 E200.32442
G0 F6000 X35.205 Y93.075
G1 F1200 X91.923 Y149.792 E203.25902
G0 F6000 X92.545 Y149.792
G1 F1200 X35.205 Y92.452 E206.22583
G0 F6000 X35.205 Y91.83
G1 F1200 X93.167 Y149.792 E209.22482
G0 F6000 X93.789 Y149.792
G1 F1200 X35.205 Y91.208 E212.25599
G0 F6000 X35.205 Y90.586
G1 F1200 X94.412 Y149.792 E215.31937
G0 F6000 X95.034 Y149.792
G1 F1200 X35.205 Y89.963 E218.41496
G0 F6000 X35.205 Y89.341
G1 F1200 X95.656 Y149.792 E221.54274
G0 F6000 X96.278 Y149.792
G1 F1200 X35.205 Y88.719 E224.70269
G0 F6000 X35.205 Y88.097
G1 F1200 X96.901 Y149.792 E227.89486
G0 F6000 X97.523 Y149.792
G1 F1200 X35.205 Y87.474 E231.11923
G0 F6000 X35.205 Y86.852
G1 F1200 X98.145 Y149.792 E234.37578
G0 F6000 X98.767 Y149.792
G1 F1200 X35.205 Y86.23 E237.66452
G0 F6000 X35.205 Y85.608
G1 F1200 X99.39 Y149.792 E240.98547
G0 F6000 X100.012 Y149.792
G1 F1200 X35.205 Y84.985 E244.33862
G0 F6000 X35.205 Y84.363
G1 F1200 X100.634 Y149.792 E247.72396
G0 F6000 X101.256 Y149.792
G1 F1200 X35.205 Y83.741 E251.14148
G0 F6000 X35.205 Y83.118
G1 F1200 X101.879 Y149.792 E254.59123
G0 F6000 X102.501 Y149.792
G1 F1200 X35.205 Y82.496 E258.07317
G0 F6000 X35.205 Y81.874
G1 F1200 X103.123 Y149.792 E261.58729
G0 F6000 X103.745 Y149.792
G1 F1200 X35.205 Y81.252 E265.13359
G0 F6000 X35.205 Y80.629
G1 F1200 X104.368 Y149.792 E268.71213
G0 F6000 X104.99 Y149.792
G1 F1200 X35.205 Y80.007 E272.32285
G0 F6000 X35.205 Y79.385
G1 F1200 X105.612 Y149.792 E275.96575
G0 F6000 X106.235 Y149.792
G1 F1200 X35.205 Y78.763 E279.64086
G0 F6000 X35.205 Y78.14
G1 F1200 X106.857 Y149.792 E283.34818
G0 F6000 X107.479 Y149.792
G1 F1200 X35.205 Y77.518 E287.08769
G0 F6000 X35.205 Y76.896
G1 F1200 X108.101 Y149.792 E290.85937
G0 F6000 X108.724 Y149.792
G1 F1200 X35.205 Y76.274 E294.66326
G0 F6000 X35.205 Y75.651
G1 F1200 X109.346 Y149.792 E298.49937
G0 F6000 X109.968 Y149.792
G1 F1200 X35.205 Y75.029 E302.36765
G0 F6000 X35.205 Y74.407
G1 F1200 X110.59 Y149.792 E306.26812
G0 F6000 X111.213 Y149.792
G1 F1200 X35.205 Y73.785 E310.20079
G0 F6000 X35.205 Y73.162
G1 F1200 X111.835 Y149.792 E314.16568
G0 F6000 X112.457 Y149.792
G1 F1200 X35.205 Y72.54 E318.16274
G0 F6000 X35.205 Y71.918
G1 F1200 X113.079 Y149.792 E322.19199
G0 F6000 X113.702 Y149.792
G1 F1200 X35.205 Y71.296 E326.25345
G0 F6000 X35.205 Y70.673
G1 F1200 X114.324 Y149.792 E330.34712
G0 F6000 X114.946 Y149.792
G1 F1200 X35.205 Y70.051 E334.47297
G0 F6000 X35.205 Y69.429
G1 F1200 X115.568 Y149.792 E338.631
G0 F6000 X116.191 Y149.792
G1 F1200 X35.205 Y68.807 E342.82124
G0 F6000 X35.205 Y68.184
G1 F1200 X116.813 Y149.792 E347.04369
G0 F6000 X117.435 Y149.792
G1 F1200 X35.205 Y67.562 E351.29832
G0 F6000 X35.205 Y66.94
G1 F1200 X118.057 Y149.792 E355.58514
G0 F6000 X118.68 Y149.792
G1 F1200 X35.205 Y66.318 E359.90416
G0 F6000 X35.205 Y65.695
G1 F1200 X119.302 Y149.792 E364.25539
G0 F6000 X119.924 Y149.792
G1 F1200 X35.205 Y65.073 E368.63881
G0 F6000 X35.205 Y64.451
G1 F1200 X120.546 Y149.792 E373.0544
G0 F6000 X121.169 Y149.792
G1 F1200 X35.205 Y63.829 E377.50221
G0 F6000 X35.205 Y63.206
G1 F1200 X121.791 Y149.792 E381.98222
G0 F6000 X122.413 Y149.792
G1 F1200 X35.205 Y62.584 E386.49442
G0 F6000 X35.205 Y61.962
G1 F1200 X123.035 Y149.792 E391.0388
G0 F6000 X123.658 Y149.792
G1 F1200 X35.205 Y61.34 E395.61539
G0 F6000 X35.205 Y60.717
G1 F1200 X124.28 Y149.792 E400.22418
G0 F6000 X124.902 Y149.792
G1 F1200 X35.205 Y60.095 E404.86516
G0 F6000 X35.205 Y59.473
G1 F1200 X125.524 Y149.792 E409.53832
G0 F6000 X126.147 Y149.792
G1 F1200 X35.205 Y58.851 E414.24369
G0 F6000 X35.205 Y58.228
G1 F1200 X126.769 Y149.792 E418.98127
G0 F6000 X127.391 Y149.792
G1 F1200 X35.205 Y57.606 E423.75103
G0 F6000 X35.205 Y56.984
G1 F1200 X128.013 Y149.792 E428.55298
G0 F6000 X128.636 Y149.792
G1 F1200 X35.205 Y56.362 E433.38713
G0 F6000 X35.205 Y55.739
G1 F1200 X129.258 Y149.792 E438.25349
G0 F6000 X129.88 Y149.792
G1 F1200 X35.205 Y55.117 E443.15204
G0 F6000 X35.205 Y54.495
G1 F1200 X130.502 Y149.792 E448.08276
G0 F6000 X131.125 Y149.792
G1 F1200 X35.205 Y53.873 E453.0457
G0 F6000 X35.205 Y53.25
G1 F1200 X131.747 Y149.792 E458.04084
G0 F6000 X132.369 Y149.792
G1 F1200 X35.205 Y52.628 E463.06817
G0 F6000 X35.205 Y52.006
G1 F1200 X132.991 Y149.792 E468.12768
G0 F6000 X133.614 Y149.792
G1 F1200 X35.205 Y51.384 E473.21939
G0 F6000 X35.205 Y50.761
G1 F1200 X134.236 Y149.792 E478.34332
G0 F6000 X134.858 Y149.792
G1 F1200 X35.205 Y50.139 E483.49943
G0 F6000 X35.205 Y49.517
G1 F1200 X135.48 Y149.792 E488.68772
G0 F6000 X136.103 Y149.792
G1 F1200 X35.205 Y48.895 E493.90822
G0 F6000 X35.205 Y48.272
G1 F1200 X136.725 Y149.792 E499.16093
G0 F6000 X137.347 Y149.792
G1 F1200 X35.205 Y47.65 E504.44582
G0 F6000 X35.205 Y47.028
G1 F1200 X137.969 Y149.792 E509.76289
G0 F6000 X138.592 Y149.792
G1 F1200 X35.205 Y46.406 E515.11218
G0 F6000 X35.205 Y45.783
G1 F1200 X139.214 Y149.792 E520.49367
G0 F6000 X139.836 Y149.792
G1 F1200 X35.205 Y45.161 E525.90734
G0 F6000 X35.205 Y44.539
G1 F1200 X140.458 Y149.792 E531.3532
G0 F6000 X141.081 Y149.792
G1 F1200 X35.205 Y43.916 E536.83129
G0 F6000 X35.205 Y43.294
G1 F1200 X141.703 Y149.792 E542.34156
G0 F6000 X142.325 Y149.792
G1 F1200 X35.205 Y42.672 E547.88402
G0 F6000 X35.205 Y42.05
G1 F1200 X142.947 Y149.792 E553.45865
G0 F6000 X143.57 Y149.792
G1 F1200 X35.205 Y41.427 E559.06553
G0 F6000 X35.205 Y40.805
G1 F1200 X144.192 Y149.792 E564.70458
G0 F6000 X144.794 Y149.772
G1 F1200 X35.205 Y40.183 E570.37479
G0 F6000 X35.205 Y39.561
G1 F1200 X144.794 Y149.15 E576.04499
G0 F6000 X144.794 Y148.527
G1 F1200 X35.205 Y38.938 E581.71519
G0 F6000 X35.205 Y38.316
G1 F1200 X144.794 Y147.905 E587.3854
G0 F6000 X144.794 Y147.283
G1 F1200 X35.205 Y37.694 E593.0556
G0 F6000 X35.205 Y37.072
G1 F1200 X144.794 Y146.661 E598.72581
G0 F6000 X144.794 Y146.038
G1 F1200 X35.205 Y36.449 E604.39601
G0 F6000 X35.205 Y35.827
G1 F1200 X144.794 Y145.416 E610.06621
G0 F6000 X144.794 Y144.794
G1 F1200 X35.205 Y35.205 E615.73642
G0 F6000 X35.205 Y34.583
G1 F1200 X144.794 Y144.172 E621.40662
G0 F6000 X144.794 Y143.549
G1 F1200 X35.205 Y33.96 E627.07682
G0 F6000 X35.205 Y33.338
G1 F1200 X144.794 Y142.927 E632.74703
G0 F6000 X144.794 Y142.305
G1 F1200 X35.205 Y32.716 E638.41723
G0 F6000 X35.205 Y32.094
G1 F1200 X144.794 Y141.682 E644.08741
G0 F6000 X144.794 Y141.06
G1 F1200 X35.205 Y31.471 E649.75761
G0 F6000 X35.205 Y30.849
G1 F1200 X144.794 Y140.438 E655.42782
G0 F6000 X144.794 Y139.816
G1 F1200 X35.205 Y30.227 E661.09802
G0 F6000 X35.806 Y30.206
G1 F1200 X144.794 Y139.193 E666.7371
G0 F6000 X144.794 Y138.571
G1 F1200 X36.428 Y30.206 E672.344
G0 F6000 X37.05 Y30.206
G1 F1200 X144.794 Y137.949 E677.91872
G0 F6000 X144.794 Y137.327
G1 F1200 X37.673 Y30.206 E683.46122
G0 F6000 X38.295 Y30.206
G1 F1200 X144.794 Y136.704 E688.97152
G0 F6000 X144.794 Y136.082
G1 F1200 X38.917 Y30.206 E694.44964
G0 F6000 X39.539 Y30.206
G1 F1200 X144.794 Y135.46 E699.89557
G0 F6000 X144.794 Y134.838
G1 F1200 X40.162 Y30.206 E705.3093
G0 F6000 X40.784 Y30.206
G1 F1200 X144.794 Y134.215 E710.69082
G0 F6000 X144.794 Y133.593
G1 F1200 X41.406 Y30.206 E716.04015
G0 F6000 X42.029 Y30.206
G1 F1200 X144.794 Y132.971 E721.35728
G0 F6000 X144.794 Y132.349
G1 F1200 X42.651 Y30.206 E726.64222
G0 F6000 X43.273 Y30.206
G1 F1200 X144.794 Y131.726 E731.89495
G0 F6000 X144.794 Y131.104
G1 F1200 X43.895 Y30.206 E737.1155
G0 F6000 X44.518 Y30.206
G1 F1200 X144.794 Y130.482 E742.30385
G0 F6000 X144.794 Y129.86
G1 F1200 X45.14 Y30.206 E747.46001
G0 F6000 X45.762 Y30.206
G1 F1200 X144.794 Y129.237 E752.58396
G0 F6000 X144.794 Y128.615
G1 F1200 X46.384 Y30.206 E757.67573
G0 F6000 X47.007 Y30.206
G1 F1200 X144.794 Y127.993 E762.73529
G0 F6000 X144.794 Y127.371
G1 F1200 X47.629 Y30.206 E767.76267
G0 F6000 X48.251 Y30.206
G1 F1200 X144.794 Y126.748 E772.75784
G0 F6000 X144.794 Y126.126
G1 F1200 X48.873 Y30.206 E777.72082
G0 F6000 X49.496 Y30.206
G1 F1200 X144.794 Y125.504 E782.6516
G0 F6000 X144.794 Y124.882
G1 F1200 X50.118 Y30.206 E787.5502
G0 F6000 X50.74 Y30.206
G1 F1200 X144.794 Y124.259 E792.41659
G0 F6000 X144.794 Y123.637
G1 F1200 X51.362 Y30.206 E797.25079
G0 F6000 X51.985 Y30.206
G1 F1200 X144.794 Y123.015 E802.05279
G0 F6000 X144.794 Y122.393
G1 F1200 X52.607 Y30.206 E806.8226
G0 F6000 X53.229 Y30.206
G1 F1200 X144.794 Y121.77 E811.5602
G0 F6000 X144.794 Y121.148
G1 F1200 X53.851 Y30.206 E816.26563
G0 F6000 X54.474 Y30.206
G1 F1200 X144.794 Y120.526 E820.93884
G0 F6000 X144.794 Y119.904
G1 F1200 X55.096 Y30.206 E825.57987
G0 F6000 X55.718 Y30.206
G1 F1200 X144.794 Y119.281 E830.18869
G0 F6000 X144.794 Y118.659
G1 F1200 X56.34 Y30.206 E834.76533
G0 F6000 X56.963 Y30.206
G1 F1200 X144.794 Y118.037 E839.30976
G0 F6000 X144.794 Y117.415
G1 F1200 X57.585 Y30.206 E843.82201
G0 F6000 X58.207 Y30.206
G1 F1200 X144.794 Y116.792 E848.30205
G0 F6000 X144.794 Y116.17
G1 F1200 X58.829 Y30.206 E852.74991
G0 F6000 X59.452 Y30.206
